icons/modern/slightly-smiling-face.svg

<svg width="32" height="32" viewBox="0 0 32 32" fill="none" xmlns="http://www.w3.org/2000/svg">
<path d="M15.9989 29.9978C25.3333 29.9978 29.9978 23.7303 29.9978 15.9989C29.9978 8.26751 25.3333 2 15.9989 2C6.66443 2 2 8.26751 2 15.9989C2 23.7303 6.66443 29.9978 15.9989 29.9978Z" fill="url(#paint0_radial_23_382)"/>
<path d="M15.9989 29.9978C25.3333 29.9978 29.9978 23.7303 29.9978 15.9989C29.9978 8.26751 25.3333 2 15.9989 2C6.66443 2 2 8.26751 2 15.9989C2 23.7303 6.66443 29.9978 15.9989 29.9978Z" fill="url(#paint1_radial_23_382)"/>
<path d="M15.9989 29.9978C25.3333 29.9978 29.9978 23.7303 29.9978 15.9989C29.9978 8.26751 25.3333 2 15.9989 2C6.66443 2 2 8.26751 2 15.9989C2 23.7303 6.66443 29.9978 15.9989 29.9978Z" fill="url(#paint2_radial_23_382)"/>
<path d="M15.9989 29.9978C25.3333 29.9978 29.9978 23.7303 29.9978 15.9989C29.9978 8.26751 25.3333 2 15.9989 2C6.66443 2 2 8.26751 2 15.9989C2 23.7303 6.66443 29.9978 15.9989 29.9978Z" fill="url(#paint3_radial_23_382)" fill-opacity="0.6"/>
<path d="M15.9989 29.9978C25.3333 29.9978 29.9978 23.7303 29.9978 15.9989C29.9978 8.26751 25.3333 2 15.9989 2C6.66443 2 2 8.26751 2 15.9989C2 23.7303 6.66443 29.9978 15.9989 29.9978Z" fill="url(#paint4_radial_23_382)"/>
<path d="M15.9989 29.9978C25.3333 29.9978 29.9978 23.7303 29.9978 15.9989C29.9978 8.26751 25.3333 2 15.9989 2C6.66443 2 2 8.26751 2 15.9989C2 23.7303 6.66443 29.9978 15.9989 29.9978Z" fill="url(#paint5_radial_23_382)"/>
<path d="M15.9989 29.9978C25.3333 29.9978 29.9978 23.7303 29.9978 15.9989C29.9978 8.26751 25.3333 2 15.9989 2C6.66443 2 2 8.26751 2 15.9989C2 23.7303 6.66443 29.9978 15.9989 29.9978Z" fill="url(#paint6_radial_23_382)"/>
<path d="M15.9989 29.9978C25.3333 29.9978 29.9978 23.7303 29.9978 15.9989C29.9978 8.26751 25.3333 2 15.9989 2C6.66443 2 2 8.26751 2 15.9989C2 23.7303 6.66443 29.9978 15.9989 29.9978Z" fill="url(#paint7_radial_23_382)"/>
<circle cx="9.01705" cy="13.4205" r="4.6733" fill="url(#paint8_radial_23_382)"/>
<circle cx="19.2443" cy="13.9432" r="4.24431" fill="url(#paint9_radial_23_382)"/>
<path d="M10.4191 16.2244C12.742 16.2244 14.6251 14.3414 14.6251 12.0185C14.6251 9.69557 12.742 7.8125 10.4191 7.8125C8.09621 7.8125 6.21313 9.69557 6.21313 12.0185C6.21313 14.3414 8.09621 16.2244 10.4191 16.2244Z" fill="white"/>
<path d="M21.5683 16.3011C23.9123 16.3011 25.8126 14.4009 25.8126 12.0568C25.8126 9.71274 23.9123 7.8125 21.5683 7.8125C19.2242 7.8125 17.324 9.71274 17.324 12.0568C17.324 14.4009 19.2242 16.3011 21.5683 16.3011Z" fill="white"/>
<path d="M11 15C12.6569 15 14 13.6569 14 12C14 10.3431 12.6569 9 11 9C9.34315 9 8 10.3431 8 12C8 13.6569 9.34315 15 11 15Z" fill="url(#paint10_linear_23_382)"/>
<path d="M21 15C22.6569 15 24 13.6569 24 12C24 10.3431 22.6569 9 21 9C19.3431 9 18 10.3431 18 12C18 13.6569 19.3431 15 21 15Z" fill="url(#paint11_linear_23_382)"/>
<path fill-rule="evenodd" clip-rule="evenodd" d="M10.4001 18.2001C10.8419 17.8687 11.4687 17.9582 11.8001 18.4001C12.1094 18.8125 13.5118 20.0001 16.0001 20.0001C18.4883 20.0001 19.8907 18.8125 20.2001 18.4001C20.5314 17.9582 21.1582 17.8687 21.6001 18.2001C22.0419 18.5314 22.1314 19.1582 21.8001 19.6001C21.1094 20.5209 19.1118 22.0001 16.0001 22.0001C12.8883 22.0001 10.8907 20.5209 10.2001 19.6001C9.86869 19.1582 9.95823 18.5314 10.4001 18.2001Z" fill="url(#paint12_radial_23_382)"/>
<defs>
<radialGradient id="paint0_radial_23_382" cx="0" cy="0" r="1" gradientUnits="userSpaceOnUse" gradientTransform="translate(25.5 9) rotate(132.839) scale(37.5033)">
<stop stop-color="#FFF478"/>
<stop offset="0.474827" stop-color="#FFB02E"/>
<stop offset="1" stop-color="#F70A8D"/>
</radialGradient>
<radialGradient id="paint1_radial_23_382" cx="0" cy="0" r="1" gradientUnits="userSpaceOnUse" gradientTransform="translate(25.5 9) rotate(131.878) scale(38.9487)">
<stop stop-color="#FFF478"/>
<stop offset="0.474827" stop-color="#FFB02E"/>
<stop offset="1" stop-color="#F70A8D"/>
</radialGradient>
<radialGradient id="paint2_radial_23_382" cx="0" cy="0" r="1" gradientUnits="userSpaceOnUse" gradientTransform="translate(16 12.5) rotate(101.31) scale(17.8466 22.8581)">
<stop offset="0.787821" stop-color="#F59639" stop-opacity="0"/>
<stop offset="0.972509" stop-color="#FF7DCE"/>
</radialGradient>
<radialGradient id="paint3_radial_23_382" cx="0" cy="0" r="1" gradientUnits="userSpaceOnUse" gradientTransform="translate(18 14) rotate(135) scale(41.0122)">
<stop offset="0.314853" stop-opacity="0"/>
<stop offset="1"/>
</radialGradient>
<radialGradient id="paint4_radial_23_382" cx="0" cy="0" r="1" gradientUnits="userSpaceOnUse" gradientTransform="translate(16 17) rotate(77.692) scale(28.1469)">
<stop offset="0.507903" stop-color="#7D6133" stop-opacity="0"/>
<stop offset="1" stop-color="#715B32"/>
</radialGradient>
<radialGradient id="paint5_radial_23_382" cx="0" cy="0" r="1" gradientUnits="userSpaceOnUse" gradientTransform="translate(16.5 16.5) rotate(55.7131) scale(13.3135 9.65032)">
<stop stop-color="#FFB849"/>
<stop offset="1" stop-color="#FFB847" stop-opacity="0"/>
</radialGradient>
<radialGradient id="paint6_radial_23_382" cx="0" cy="0" r="1" gradientUnits="userSpaceOnUse" gradientTransform="translate(20.5 18) rotate(9.86581) scale(11.6726)">
<stop stop-color="#FFA64B"/>
<stop offset="0.900412" stop-color="#FFAE46" stop-opacity="0"/>
</radialGradient>
<radialGradient id="paint7_radial_23_382" cx="0" cy="0" r="1" gradientUnits="userSpaceOnUse" gradientTransform="translate(17.5 15) rotate(43.9708) scale(59.0529)">
<stop offset="0.185425" stop-opacity="0"/>
<stop offset="1" stop-opacity="0.4"/>
</radialGradient>
<radialGradient id="paint8_radial_23_382" cx="0" cy="0" r="1" gradientUnits="userSpaceOnUse" gradientTransform="translate(12.6518 9.7857) rotate(135) scale(9.10579 4.71285)">
<stop stop-color="#392108"/>
<stop offset="1" stop-color="#C87928" stop-opacity="0"/>
</radialGradient>
<radialGradient id="paint9_radial_23_382" cx="0" cy="0" r="1" gradientUnits="userSpaceOnUse" gradientTransform="translate(22.5454 10.642) rotate(135) scale(7.66968 4.32966)">
<stop stop-color="#392108"/>
<stop offset="1" stop-color="#C87928" stop-opacity="0"/>
</radialGradient>
<linearGradient id="paint10_linear_23_382" x1="16.5" y1="8" x2="15.5" y2="15" gradientUnits="userSpaceOnUse">
<stop stop-color="#553B3E"/>
<stop offset="1" stop-color="#3D2432"/>
</linearGradient>
<linearGradient id="paint11_linear_23_382" x1="16.5" y1="8" x2="15.5" y2="15" gradientUnits="userSpaceOnUse">
<stop stop-color="#553B3E"/>
<stop offset="1" stop-color="#3D2432"/>
</linearGradient>
<radialGradient id="paint12_radial_23_382" cx="0" cy="0" r="1" gradientUnits="userSpaceOnUse" gradientTransform="translate(16.0001 17.0001) rotate(90) scale(5.5 8.41855)">
<stop offset="0.34763" stop-color="#241A1A"/>
<stop offset="0.628228" stop-color="#57444A"/>
<stop offset="1" stop-color="#4E2553"/>
<stop offset="1" stop-color="#502A56"/>
</radialGradient>
</defs>
</svg>

<svg width="32" height="32" fill="none" xmlns="http://www.w3.org/2000/svg"><path d="M15.999 29.998c9.334 0 13.999-6.268 13.999-14 0-7.73-4.665-13.998-14-13.998C6.665 2 2 8.268 2 15.999c0 7.731 4.664 13.999 13.999 13.999Z" fill="url(#a)"/><path d="M15.999 29.998c9.334 0 13.999-6.268 13.999-14 0-7.73-4.665-13.998-14-13.998C6.665 2 2 8.268 2 15.999c0 7.731 4.664 13.999 13.999 13.999Z" fill="url(#b)"/><path d="M15.999 29.998c9.334 0 13.999-6.268 13.999-14 0-7.73-4.665-13.998-14-13.998C6.665 2 2 8.268 2 15.999c0 7.731 4.664 13.999 13.999 13.999Z" fill="url(#c)"/><path d="M15.999 29.998c9.334 0 13.999-6.268 13.999-14 0-7.73-4.665-13.998-14-13.998C6.665 2 2 8.268 2 15.999c0 7.731 4.664 13.999 13.999 13.999Z" fill="url(#d)" fill-opacity=".6"/><path d="M15.999 29.998c9.334 0 13.999-6.268 13.999-14 0-7.73-4.665-13.998-14-13.998C6.665 2 2 8.268 2 15.999c0 7.731 4.664 13.999 13.999 13.999Z" fill="url(#e)"/><path d="M15.999 29.998c9.334 0 13.999-6.268 13.999-14 0-7.73-4.665-13.998-14-13.998C6.665 2 2 8.268 2 15.999c0 7.731 4.664 13.999 13.999 13.999Z" fill="url(#f)"/><path d="M15.999 29.998c9.334 0 13.999-6.268 13.999-14 0-7.73-4.665-13.998-14-13.998C6.665 2 2 8.268 2 15.999c0 7.731 4.664 13.999 13.999 13.999Z" fill="url(#g)"/><path d="M15.999 29.998c9.334 0 13.999-6.268 13.999-14 0-7.73-4.665-13.998-14-13.998C6.665 2 2 8.268 2 15.999c0 7.731 4.664 13.999 13.999 13.999Z" fill="url(#h)"/><circle cx="9.017" cy="13.421" r="4.673" fill="url(#i)"/><circle cx="19.244" cy="13.943" r="4.244" fill="url(#j)"/><path d="M10.42 16.224a4.206 4.206 0 1 0 0-8.411 4.206 4.206 0 0 0 0 8.411ZM21.568 16.301a4.244 4.244 0 1 0 0-8.489 4.244 4.244 0 0 0 0 8.49Z" fill="#fff"/><path d="M11 15a3 3 0 1 0 0-6 3 3 0 0 0 0 6Z" fill="url(#k)"/><path d="M21 15a3 3 0 1 0 0-6 3 3 0 0 0 0 6Z" fill="url(#l)"/><path fill-rule="evenodd" clip-rule="evenodd" d="M10.4 18.2a1 1 0 0 1 1.4.2c.31.413 1.712 1.6 4.2 1.6 2.488 0 3.89-1.188 4.2-1.6a1 1 0 1 1 1.6 1.2c-.69.92-2.688 2.4-5.8 2.4-3.112 0-5.11-1.48-5.8-2.4a1 1 0 0 1 .2-1.4Z" fill="url(#m)"/><defs><radialGradient id="a" cx="0" cy="0" r="1" gradientUnits="userSpaceOnUse" gradientTransform="rotate(132.839 10.786 10.065) scale(37.5033)"><stop stop-color="#FFF478"/><stop offset=".475" stop-color="#FFB02E"/><stop offset="1" stop-color="#F70A8D"/></radialGradient><radialGradient id="b" cx="0" cy="0" r="1" gradientUnits="userSpaceOnUse" gradientTransform="rotate(131.878 10.74 10.193) scale(38.9487)"><stop stop-color="#FFF478"/><stop offset=".475" stop-color="#FFB02E"/><stop offset="1" stop-color="#F70A8D"/></radialGradient><radialGradient id="c" cx="0" cy="0" r="1" gradientUnits="userSpaceOnUse" gradientTransform="rotate(101.31 2.876 12.808) scale(17.8466 22.8581)"><stop offset=".788" stop-color="#F59639" stop-opacity="0"/><stop offset=".973" stop-color="#FF7DCE"/></radialGradient><radialGradient id="d" cx="0" cy="0" r="1" gradientUnits="userSpaceOnUse" gradientTransform="matrix(-29 29 -29 -29 18 14)"><stop offset=".315" stop-opacity="0"/><stop offset="1"/></radialGradient><radialGradient id="e" cx="0" cy="0" r="1" gradientUnits="userSpaceOnUse" gradientTransform="rotate(77.692 -2.555 18.434) scale(28.1469)"><stop offset=".508" stop-color="#7D6133" stop-opacity="0"/><stop offset="1" stop-color="#715B32"/></radialGradient><radialGradient id="f" cx="0" cy="0" r="1" gradientUnits="userSpaceOnUse" gradientTransform="rotate(55.713 -7.36 23.86) scale(13.3135 9.65032)"><stop stop-color="#FFB849"/><stop offset="1" stop-color="#FFB847" stop-opacity="0"/></radialGradient><radialGradient id="g" cx="0" cy="0" r="1" gradientUnits="userSpaceOnUse" gradientTransform="matrix(11.49998 2 -2 11.49998 20.5 18)"><stop stop-color="#FFA64B"/><stop offset=".9" stop-color="#FFAE46" stop-opacity="0"/></radialGradient><radialGradient id="h" cx="0" cy="0" r="1" gradientUnits="userSpaceOnUse" gradientTransform="rotate(43.971 -9.827 29.173) scale(59.0529)"><stop offset=".185" stop-opacity="0"/><stop offset="1" stop-opacity=".4"/></radialGradient><radialGradient id="i" cx="0" cy="0" r="1" gradientUnits="userSpaceOnUse" gradientTransform="rotate(135 4.3 7.513) scale(9.10579 4.71285)"><stop stop-color="#392108"/><stop offset="1" stop-color="#C87928" stop-opacity="0"/></radialGradient><radialGradient id="j" cx="0" cy="0" r="1" gradientUnits="userSpaceOnUse" gradientTransform="rotate(135 9.069 9.99) scale(7.66968 4.32966)"><stop stop-color="#392108"/><stop offset="1" stop-color="#C87928" stop-opacity="0"/></radialGradient><radialGradient id="m" cx="0" cy="0" r="1" gradientUnits="userSpaceOnUse" gradientTransform="matrix(0 5.5 -8.41855 0 16 17)"><stop offset=".348" stop-color="#241A1A"/><stop offset=".628" stop-color="#57444A"/><stop offset="1" stop-color="#4E2553"/><stop offset="1" stop-color="#502A56"/></radialGradient><linearGradient id="k" x1="16.5" y1="8" x2="15.5" y2="15" gradientUnits="userSpaceOnUse"><stop stop-color="#553B3E"/><stop offset="1" stop-color="#3D2432"/></linearGradient><linearGradient id="l" x1="16.5" y1="8" x2="15.5" y2="15" gradientUnits="userSpaceOnUse"><stop stop-color="#553B3E"/><stop offset="1" stop-color="#3D2432"/></linearGradient></defs></svg>
